UI/Discovery-Sharing/SVG/unlink_solid_16px.svg

<svg width="16" height="16" viewBox="0 0 16 16" fill="none" xmlns="http://www.w3.org/2000/svg">
<path d="M5 4V1H6V4H5ZM4 5H1V6H4V5ZM3.83 3.12L1.71 1L1 1.71L3.12 3.83L3.83 3.12ZM10 12V15H11V12H10ZM12 11H15V10H12V11ZM12.17 12.88L14.29 15L15 14.29L12.88 12.17L12.17 12.88ZM7.1 12.4C6.637 12.825 6.03042 13.0592 5.40196 13.0556C4.77351 13.052 4.16965 12.8108 3.71156 12.3806C3.25346 11.9503 2.975 11.3628 2.93206 10.7358C2.88911 10.1088 3.08485 9.4887 3.48 9L4.09 8.32L2.68 6.94L2.29 7.33C1.57815 8.05214 1.13299 8.99486 1.0276 10.0034C0.922203 11.0119 1.16284 12.0263 1.71 12.88L1 13.59L2.41 15L3.13 14.28C3.94351 14.7929 4.90102 15.0292 5.85975 14.9535C6.81848 14.8778 7.72706 14.4942 8.45 13.86L9.09 13.24L7.67 11.83L7.1 12.4ZM14.71 2.71L15 2.41L13.59 1L13.29 1.29L12.93 1.66C12.0308 1.12834 10.979 0.914243 9.94351 1.05207C8.90801 1.18989 7.94885 1.67165 7.22 2.42L6.85 2.78L8.27 4.2L8.63 3.83C9.10163 3.32723 9.7524 3.03059 10.4413 3.00439C11.1301 2.97818 11.8015 3.22452 12.31 3.69C12.7019 4.10215 12.9428 4.63476 12.9937 5.20121C13.0445 5.76766 12.9022 6.33465 12.59 6.81L11.91 7.53L13.37 9L13.58 8.79C14.3284 8.06115 14.8101 7.10199 14.9479 6.06649C15.0858 5.031 14.8717 3.97922 14.34 3.08L14.71 2.71Z" fill="#0F1621"/>
</svg>

<svg xmlns="http://www.w3.org/2000/svg" width="16" height="16" viewBox="0 0 16 16"><rect width="16" height="16" style="fill:none"/><path d="M5,4V1H6V4ZM4,5H1V6H4ZM3.83,3.12,1.71,1,1,1.71,3.12,3.83ZM10,12v3h1V12Zm2-1h3V10H12Zm.17,1.88L14.29,15l.71-.71-2.12-2.12ZM7.1,12.4A2.49,2.49,0,0,1,3.48,9l.61-.68L2.68,6.94l-.39.39a4.47,4.47,0,0,0-.58,5.55L1,13.59,2.41,15l.72-.72a4.46,4.46,0,0,0,5.32-.42l.64-.62L7.67,11.83Zm7.61-9.69.29-.3L13.59,1l-.3.29-.36.37a4.66,4.66,0,0,0-5.71.76l-.37.36L8.27,4.2l.36-.37a2.62,2.62,0,0,1,3.68-.14,2.52,2.52,0,0,1,.28,3.12l-.68.72L13.37,9l.21-.21a4.66,4.66,0,0,0,.76-5.71Z"/></svg>
